app-template/digibyte/img/onboarding/tour-currency.svg

<?xml version="1.0" encoding="utf-8"?>
<!-- Generator: Adobe Illustrator 21.1.0, SVG Export Plug-In . SVG Version: 6.00 Build 0)  -->
<svg version="1.1" id="Layer_1" xmlns="http://www.w3.org/2000/svg" xmlns:xlink="http://www.w3.org/1999/xlink" x="0px" y="0px"
	 viewBox="0 0 377 247" style="enable-background:new 0 0 377 247;" xml:space="preserve">
<style type="text/css">
	.st0{fill:#002352;}
	.st1{fill:#0066CC;}
	.st2{opacity:0.3;fill:url(#Shape_6_);enable-background:new    ;}
	.st3{fill:#FFFFFF;}
	.st4{opacity:0.3;fill:url(#Shape_7_);enable-background:new    ;}
	.st5{fill:#17BAE0;}
</style>
<title>tour-currency</title>
<desc>Created with Sketch.</desc>
<g>
	<circle class="st0" cx="188.5" cy="123.5" r="107.3"/>
	<g>
		<path class="st1" d="M188.5,0C120.3,0,65,55.3,65,123.5S120.3,247,188.5,247S312,191.7,312,123.5S256.7,0,188.5,0z"/>
		<circle class="st0" cx="188.5" cy="123.5" r="100.3"/>
	</g>
	
		<linearGradient id="Shape_6_" gradientUnits="userSpaceOnUse" x1="-230.5607" y1="420.5756" x2="-230.5607" y2="419.6809" gradientTransform="matrix(247 0 0 -247 57137 103882.1563)">
		<stop  offset="0" style="stop-color:#002352"/>
		<stop  offset="1" style="stop-color:#002352"/>
	</linearGradient>
	<path id="Shape" class="st2" d="M188.5,247c68.2,0,123.5-55.3,123.5-123.5S256.7,0,188.5,0S65,55.3,65,123.5S120.3,247,188.5,247z"
		/>
</g>
<g id="Page-1">
	<g id="tour-currency" transform="translate(-1.000000, 0.000000)">
		<g id="Group" transform="translate(76.000000, 61.000000)">
			<path id="Shape_2_" class="st3" d="M226.2,124h-0.5v-4h0.5V124z M226.2,116h-0.5v-4h0.5V116z M226.2,108h-0.5v-4h0.5V108z
				 M226.2,100h-0.5v-4h0.5V100z M226.2,92h-0.5v-4h0.5V92z M226.2,84h-0.5v-4h0.5V84z M226.2,76h-0.5v-4h0.5V76z M226.2,68h-0.5v-4
				h0.5V68z M226.2,60h-0.5v-4h0.5V60z M226.2,52h-0.5v-4h0.5V52z M226.2,44h-0.5v-4h0.5V44z M226.2,36h-0.5v-4h0.5V36z M226.2,28
				h-0.5v-4h0.5V28z M226.2,20h-0.5v-4h0.5V20z M226.2,12h-0.5V8h0.5V12z M226.2,4h-0.5V0h0.5V4z"/>
			<path id="Shape_3_" class="st3" d="M151.2,124h-0.5v-4h0.5V124z M151.2,116h-0.5v-4h0.5V116z M151.2,108h-0.5v-4h0.5V108z
				 M151.2,100h-0.5v-4h0.5V100z M151.2,92h-0.5v-4h0.5V92z M151.2,84h-0.5v-4h0.5V84z M151.2,76h-0.5v-4h0.5V76z M151.2,68h-0.5v-4
				h0.5V68z M151.2,60h-0.5v-4h0.5V60z M151.2,52h-0.5v-4h0.5V52z M151.2,44h-0.5v-4h0.5V44z M151.2,36h-0.5v-4h0.5V36z M151.2,28
				h-0.5v-4h0.5V28z M151.2,20h-0.5v-3.2h0.5V20z"/>
			<path id="Shape_4_" class="st3" d="M76.2,124h-0.5v-4h0.5V124z M76.2,116h-0.5v-4h0.5V116z M76.2,108h-0.5v-4h0.5V108z M76.2,100
				h-0.5v-4h0.5V100z M76.2,92h-0.5v-4h0.5V92z M76.2,84h-0.5v-4h0.5V84z M76.2,76h-0.5v-4h0.5V76z M76.2,68h-0.5v-4h0.5V68z
				 M76.2,60h-0.5v-4h0.5V60z M76.2,52h-0.5v-2h0.5V52z"/>
			<path id="Shape_5_" class="st3" d="M1.2,124H0.7v-4h0.5V124z M1.2,116H0.7v-4h0.5V116z M1.2,108H0.7v-4h0.5V108z M1.2,100H0.7v-4
				h0.5V100z M1.2,92H0.7v-4h0.5V92z M1.2,84H0.7v-4h0.5V84z M1.2,76H0.7v-4h0.5V76z M1.2,68H0.7v-4h0.5V68z M1.2,60H0.7v-4h0.5V60z
				"/>
		</g>
		
			<linearGradient id="Shape_7_" gradientUnits="userSpaceOnUse" x1="-229.8813" y1="419.12" x2="-229.8813" y2="420.12" gradientTransform="matrix(375 0 0 -150 86395 63053)">
			<stop  offset="0" style="stop-color:#002352"/>
			<stop  offset="1" style="stop-color:#002352"/>
		</linearGradient>
		<polygon id="Shape_1_" class="st4" points="56.3,127.3 99.7,97.8 142.1,119.9 186.6,80.7 224.9,80.7 249.7,47.5 282.8,67.2 
			323.2,56.1 377,35 377,185 152.1,185 2.4,185 2,133.5 		"/>
		<path class="st5" d="M378.8,34.3c-0.4-1-1.6-1.6-2.6-1.2l-53.8,21.1L283,65.1l-32.4-19.3c-0.9-0.4-2-0.2-2.5,0.6l-24.2,32.4h-37.3
			c-0.4,0-0.9,0-1.4,0.4l-43.5,38.2L100.6,96l-0.1-0.1c-0.6-0.2-1.3-0.1-1.9,0.2l-42.9,29.2l-53.9,6.2c-0.6,0.1-1.1,0.4-1.4,0.9
			c-0.3,0.4-0.4,0.9-0.3,1.4c0.2,0.9,0.8,1.5,1.6,1.7l0.2,0.2l54.8-6.3l0.3,0l0.1-0.1c0.1,0,0.3-0.1,0.4-0.2l42.4-28.8l41.3,21.6
			c0.7,0.4,1.7,0.3,2.3-0.2l43.9-38.8h37.5c0.7,0,1.3-0.3,1.6-0.8l23.8-31.8L281.7,69l0.3,0.1c0.3,0.1,0.8,0.3,1.3,0.1l40.3-11.1
			h0.2l54-21.2C378.7,36.5,379.2,35.3,378.8,34.3z"/>
		<g id="Group_1_" transform="translate(185.000000, 38.000000)">
			<g>
				<circle id="dot_1_" class="st1" cx="1.6" cy="43.3" r="4.5"/>
				<path class="st3" d="M1.6,48.7c-3,0-5.5-2.5-5.5-5.5s2.5-5.5,5.5-5.5c3,0,5.5,2.5,5.5,5.5S4.7,48.7,1.6,48.7z M1.6,39.7
					c-1.9,0-3.5,1.6-3.5,3.5s1.6,3.5,3.5,3.5s3.5-1.6,3.5-3.5S3.6,39.7,1.6,39.7z"/>
			</g>
		</g>
	</g>
</g>
</svg>

<?xml version="1.0" encoding="UTF-8"?>
<svg width="377px" height="247px" viewBox="0 0 377 247" version="1.1" xmlns="http://www.w3.org/2000/svg" xmlns:xlink="http://www.w3.org/1999/xlink">
    <!-- Generator: Sketch 42 (36781) - http://www.bohemiancoding.com/sketch -->
    <title>tour-currency</title>
    <desc>Created with Sketch.</desc>
    <defs>
        <linearGradient x1="50.0034413%" y1="0.00943319838%" x2="50.0034413%" y2="89.4694332%" id="linearGradient-1">
            <stop stop-color="#002352" offset="0%"></stop>
            <stop stop-color="#002352" offset="100%"></stop>
        </linearGradient>
        <linearGradient x1="50%" y1="100.020333%" x2="50%" y2="0.0203333333%" id="linearGradient-2">
            <stop stop-color="#002352" offset="0%"></stop>
            <stop stop-color="#002352" offset="100%"></stop>
        </linearGradient>
    </defs>
    <g id="Page-1" stroke="none" stroke-width="1" fill="none" fill-rule="evenodd">
        <g id="tour-currency" transform="translate(-1.000000, 0.000000)">
            <path d="M189.5,247 C257.7,247 313,191.7 313,123.5 C313,55.3 257.7,0 189.5,0 C121.3,0 66,55.3 66,123.5 C66,191.7 121.3,247 189.5,247 Z" id="Shape" fill="url(#linearGradient-1)" fill-rule="nonzero" opacity="0.3"></path>
            <polygon id="Shape" fill="url(#linearGradient-2)" fill-rule="nonzero" opacity="0.3" points="56.3 127.3 99.7 97.8 142.1 119.9 186.6 80.7 224.9 80.7 249.7 47.5 282.8 67.2 323.2 56.1 377 35 377 185 152.1 185 2.4 185 2 133.5"></polygon>
            <g id="Group" opacity="0.3" transform="translate(76.000000, 61.000000)" fill-rule="nonzero" fill="#13E5B6">
                <path d="M226.2,124 L225.7,124 L225.7,120 L226.2,120 L226.2,124 Z M226.2,116 L225.7,116 L225.7,112 L226.2,112 L226.2,116 Z M226.2,108 L225.7,108 L225.7,104 L226.2,104 L226.2,108 Z M226.2,100 L225.7,100 L225.7,96 L226.2,96 L226.2,100 Z M226.2,92 L225.7,92 L225.7,88 L226.2,88 L226.2,92 Z M226.2,84 L225.7,84 L225.7,80 L226.2,80 L226.2,84 Z M226.2,76 L225.7,76 L225.7,72 L226.2,72 L226.2,76 Z M226.2,68 L225.7,68 L225.7,64 L226.2,64 L226.2,68 Z M226.2,60 L225.7,60 L225.7,56 L226.2,56 L226.2,60 Z M226.2,52 L225.7,52 L225.7,48 L226.2,48 L226.2,52 Z M226.2,44 L225.7,44 L225.7,40 L226.2,40 L226.2,44 Z M226.2,36 L225.7,36 L225.7,32 L226.2,32 L226.2,36 Z M226.2,28 L225.7,28 L225.7,24 L226.2,24 L226.2,28 Z M226.2,20 L225.7,20 L225.7,16 L226.2,16 L226.2,20 Z M226.2,12 L225.7,12 L225.7,8 L226.2,8 L226.2,12 Z M226.2,4 L225.7,4 L225.7,0 L226.2,0 L226.2,4 Z" id="Shape"></path>
                <path d="M151.2,124 L150.7,124 L150.7,120 L151.2,120 L151.2,124 Z M151.2,116 L150.7,116 L150.7,112 L151.2,112 L151.2,116 Z M151.2,108 L150.7,108 L150.7,104 L151.2,104 L151.2,108 Z M151.2,100 L150.7,100 L150.7,96 L151.2,96 L151.2,100 Z M151.2,92 L150.7,92 L150.7,88 L151.2,88 L151.2,92 Z M151.2,84 L150.7,84 L150.7,80 L151.2,80 L151.2,84 Z M151.2,76 L150.7,76 L150.7,72 L151.2,72 L151.2,76 Z M151.2,68 L150.7,68 L150.7,64 L151.2,64 L151.2,68 Z M151.2,60 L150.7,60 L150.7,56 L151.2,56 L151.2,60 Z M151.2,52 L150.7,52 L150.7,48 L151.2,48 L151.2,52 Z M151.2,44 L150.7,44 L150.7,40 L151.2,40 L151.2,44 Z M151.2,36 L150.7,36 L150.7,32 L151.2,32 L151.2,36 Z M151.2,28 L150.7,28 L150.7,24 L151.2,24 L151.2,28 Z M151.2,20 L150.7,20 L150.7,16.8 L151.2,16.8 L151.2,20 Z" id="Shape"></path>
                <path d="M76.2,124 L75.7,124 L75.7,120 L76.2,120 L76.2,124 Z M76.2,116 L75.7,116 L75.7,112 L76.2,112 L76.2,116 Z M76.2,108 L75.7,108 L75.7,104 L76.2,104 L76.2,108 Z M76.2,100 L75.7,100 L75.7,96 L76.2,96 L76.2,100 Z M76.2,92 L75.7,92 L75.7,88 L76.2,88 L76.2,92 Z M76.2,84 L75.7,84 L75.7,80 L76.2,80 L76.2,84 Z M76.2,76 L75.7,76 L75.7,72 L76.2,72 L76.2,76 Z M76.2,68 L75.7,68 L75.7,64 L76.2,64 L76.2,68 Z M76.2,60 L75.7,60 L75.7,56 L76.2,56 L76.2,60 Z M76.2,52 L75.7,52 L75.7,50 L76.2,50 L76.2,52 Z" id="Shape"></path>
                <path d="M1.2,124 L0.7,124 L0.7,120 L1.2,120 L1.2,124 Z M1.2,116 L0.7,116 L0.7,112 L1.2,112 L1.2,116 Z M1.2,108 L0.7,108 L0.7,104 L1.2,104 L1.2,108 Z M1.2,100 L0.7,100 L0.7,96 L1.2,96 L1.2,100 Z M1.2,92 L0.7,92 L0.7,88 L1.2,88 L1.2,92 Z M1.2,84 L0.7,84 L0.7,80 L1.2,80 L1.2,84 Z M1.2,76 L0.7,76 L0.7,72 L1.2,72 L1.2,76 Z M1.2,68 L0.7,68 L0.7,64 L1.2,64 L1.2,68 Z M1.2,60 L0.7,60 L0.7,56 L1.2,56 L1.2,60 Z" id="Shape"></path>
            </g>
            <path d="M2,134.5 C1.5,134.5 1.1,134.1 1,133.6 C0.9,133.1 1.3,132.6 1.9,132.5 L56,126.3 L99.1,97 C99.4,96.8 99.8,96.8 100.1,96.9 L141.9,118.7 L185.9,80 C186.1,79.8 186.3,79.8 186.6,79.8 L224.4,79.8 L248.9,47 C249.2,46.6 249.8,46.5 250.2,46.7 L282.9,66.2 L322.8,55.2 L376.6,34.1 C377.1,33.9 377.7,34.2 377.9,34.7 C378.1,35.2 377.8,35.8 377.3,36 L323.5,57.1 L323.4,57.1 L283,68.2 C282.7,68.3 282.5,68.2 282.2,68.1 L250,48.9 L225.7,81.4 C225.5,81.7 225.2,81.8 224.9,81.8 L187,81.8 L142.8,120.8 C142.5,121.1 142,121.1 141.7,120.9 L99.8,99 L56.9,128.2 C56.8,128.3 56.6,128.3 56.5,128.4 L2.2,134.6 C2.1,134.5 2,134.5 2,134.5 Z" id="Shape" fill="#13E5B6" fill-rule="nonzero"></path>
            <g id="Group" transform="translate(185.000000, 38.000000)">
                <path d="M4.5,0.5 L4.5,146.5" id="Line_1_" stroke="#0085FF" stroke-width="2" stroke-linecap="square" opacity="0.64"></path>
                <circle id="dot" stroke="#FFFFFF" stroke-width="3" fill="#1A2A71" fill-rule="nonzero" cx="4.5" cy="41.5" r="4.5"></circle>
            </g>
        </g>
    </g>
</svg>
